src/actions/symbolic/document-resources-symbolic.svg

<svg width="16" height="16" version="1.1" viewBox="0 0 16 16" xmlns="http://www.w3.org/2000/svg">
 <path d="m3 0c-1.108 0-2 0.892-2 2v12c0 1.108 0.892 2 2 2h10c1.108 0 2-0.892 2-2v-12c0-1.108-0.892-2-2-2h-10zm0 1h10c0.554 0 1 0.446 1 1v1h-12v-1c0-0.554 0.446-1 1-1zm-1 3h12v3h-12v-3zm4.502 1c-0.277 0-0.5 0.223-0.5 0.5s0.223 0.5 0.5 0.5h3c0.277 0 0.5-0.223 0.5-0.5s-0.223-0.5-0.5-0.5h-3zm-4.502 3h12v3h-12v-3zm4.502 1c-0.277 0-0.5 0.223-0.5 0.5s0.223 0.5 0.5 0.5h3c0.277 0 0.5-0.223 0.5-0.5s-0.223-0.5-0.5-0.5h-3zm-4.502 3h12v2c0 0.554-0.446 1-1 1h-10c-0.554 0-1-0.446-1-1v-2zm4.502 1c-0.277 0-0.5 0.223-0.5 0.5s0.223 0.5 0.5 0.5h3c0.277 0 0.5-0.223 0.5-0.5s-0.223-0.5-0.5-0.5h-3z" fill="#363636"/>
</svg>

<svg xmlns="http://www.w3.org/2000/svg" width="16" height="16">
    <path fill="#050505" fill-opacity=".7" d="M3 0C1.892 0 1 .892 1 2v12c0 1.108.892 2 2 2h10c1.108 0 2-.892 2-2V2c0-1.108-.892-2-2-2H3zm0 1h10c.554 0 1 .446 1 1v1H2V2c0-.554.446-1 1-1zM2 4h12v3H2V4zm4.502 1a.499.499 0 1 0 0 1h3a.499.499 0 1 0 0-1h-3zM2 8h12v3H2V8zm4.502 1a.499.499 0 1 0 0 1h3a.499.499 0 1 0 0-1h-3zM2 12h12v2c0 .554-.446 1-1 1H3c-.554 0-1-.446-1-1v-2zm4.502 1a.499.499 0 1 0 0 1h3a.499.499 0 1 0 0-1h-3z"/>
</svg>
